X: 2
T: Wild Mountain Thyme (in progress)
R: air
M: 4/4
L: 1/4
K: Gmaj
G>E | D<D E>G | G<G z B/d/ | e>e e>d|B<d z B/d/|
e2 d>B | A<G B2 AG- G2|A2 B2 c3B|A2 G2 EG3|G2 E2 D2 E2:|
G2 G2 G2 Bd|e2 e2 d2 Bd|d2 B2 d2 e2|d2 B2 AG G2|
A2 B2 c2 B2|A2 G2 E<G G2|GE D2 E2 G2|G2 G2 G2||
W: 1. Oh, the summer time is coming,
W: And the trees are sweetly blooming,
W: And the wild mountain thyme
W: grows around the blooming heather.
W: 
W: Chorus:
W: Will you go, lassie, go?
W: And we’ll all go together
W: To pull wild mountain thyme
W: All around the blooming heather,
W: Will you go lassie, go?
W: 
W: 2. I will build my love a bower
W: By yon clear and crystal fountain,
W: And on it I will pile
W: All the flowers of the mountain.
W: 3. If my true love, she won’t have me,
W: I will surely find another
W: To pull wild mountain thyme
W: All around the blooming heather.
W: 
W: 4. Oh, the summer time is coming
W: And the trees are sweetly blooming
W: And the wild mountain thyme
W: Grows around the blooming heather.


